X: 565
T: Dil-hûn Olurum...
C: Bîmen Şen
O: Turkey
F: http://compmusic.upf.edu/node/140
N: huzzam--sarki--semai--dil-hun_olurum--bimen_sen
N: makam= huzzam
N: form= sarki
N: usul= semai = 3/4
M: 3/4
L: 1/16
K: C _1/4B _3/4e ^3/4f 
Q: 1/4=138
%%MIDI tuningsystem comma53
c8 d4  | d8 e4  | f8 e2d2  | d8 c4  | d4 e4 f4  | \
w:  Dil  |  hûn   |  o lu  |  rum   |  yâd_ *  ı   | 
d4 c4 {d}c2B2  | B12  | B12  | g4 f4 g4  | 
w:  ce  |  mâ  |   |  lin  | 
a4 b4 c'4  | _b4 a4 g4  | f4 e4 d4  | a4 g4 g2f2  | \
w:   |   |   |  le  *  se  | 
g2f2 e4 e2d2  | d12  | d2c2 B2^A2 B4  | 
w:  nin   |  ben   |  SAZ  | 
c8 d4  | d8 e4  | f8 e2d2  | d8 c4  | d4 e4 f4  | \
w:  Dil  |  hûn   |  o lu  |  rum   |  yâd_ *  ı   | 
d4 c4 {d}c2B2  | B12  | B12  | g4 f4 g4  | 
w:  ce  |  mâ  |   |  lin  | 
a4 b4 c'4  | _b4 a4 g4  | f4 e4 d4  | a4 g4 g2f2  | \
w:   |   |   |  le  *  se  | 
g2f2 e4 e2d2  | d12  | d2e2 f2g2 a4  | 
w:  nin   |  ben   |  SAZ  | 
a12  | g2f2 e4 g4  | f12  | a12  | a4 g4 f4  | \
w:  Çık  |  maz  *  *  gö  |  zü   |  mün   |  nû  | 
g2f2 e4 e2d2  | d12  | d8 z4  | g4 e4 g4  | 
w:  ru  *  *  gö  |  zün   |   |  dî  | 
f4 d4 f4  | e2d2 c4 d4  | e4 f4 e2d2  | \
w:   |   |   | 
d8 d4  | d2_1/4e2 d2c2 c2B2  | B12  | d2e2 f2g2 a4  | 
w:  de le  |  rim   |  den   |  SAZ  | 
a12  | g2f2 e4 g4  | f12  | a12  | a4 g4 f4  | \
w:  Çık  |  maz  *  *  gö  |  zü   |  mün   |  nû  | 
g2f2 e4 e2d2  | d12  | d8 z4  | g4 e4 g4  | 
w:  ru  *  *  gö  |  zün   |   |  dî  | 
f4 d4 f4  | e2d2 c4 d4  | e4 f4 e2d2  | \
w:   |   |   | 
d8 d4  | d2_1/4e2 d2c2 c2B2  | B12  | b12  | 
w:  de le  |  rim   |  den    |  SAZ  | 
b12  | d'12  | c'2b2 a4 c'4  | _b4 a4 g4  | \
w:  Yıl  |  lar   |  ca *  *  se  |  nin   | 
a4 g4 ^f4  | ^e4 f4 g2f2  | f12  | f8 z4  | \
w:  râ  |  *  *  hı   |  na   |   | 
g4 f4 g4  | 
w:  göz  | 
a4 b4 c'4  | _b4 a4 g4  | ^f4 e4 d4  | a4 g4 g2f2  | \
w:   |  nû  |   |  ru  | 
g2f2 e4 e2d2  | d12  | b12  | b12  | 
w:  dö *  ker  |  ken   |  SAZ  |  Yıl  | 
d'12  | c'2b2 a4 c'4  | _b4 a4 g4  | a4 g4 ^f4  | \
w:  lar   |  ca *  *  se  |  nin   |  râ  | 
^e4 f4 g2f2  | f12  | f8 z4  | g4 f4 g4  | 
w:  *  *  hı   |  na   |   |  göz  | 
a4 b4 c'4  | _b4 a4 g4  | ^f4 e4 d4  | a4 g4 g2f2  | \
w:   |  nû  |   |  ru  | 
g2f2 e4 e2d2  | d12  | d2e2 f2g2 a4  | 
w:  dö *  ker  |  ken   |  SAZ  | 
a12  | g2f2 e4 g4  | f12  | a12  | a4 g4 f4  | \
w:  Çık  |  maz  *  *  gö  |  zü   |  mün   |  nû  | 
g2f2 e4 e2d2  | d12  | d8 z4  | g4 e4 g4  | 
w:  ru  *  *  gö  |  zün   |   |  dî  | 
f4 d4 f4  | e2d2 c4 d4  | e4 f4 e2d2  | \
w:   |   |   | 
d8 d4  | d2_1/4e2 d2c2 c2B2  | B12  | d2e2 f2g2 a4  | 
w:  de le  |  rim   |  den   |  SAZ  | 
a12  | g2f2 e4 g4  | f12  | a12  | a4 g4 f4  | \
w:  Çık  |  maz  *  *  gö  |  zü   |  mün   |  nû  | 
g2f2 e4 e2d2  | d12  | d8 z4  | g4 e4 g4  | 
w:  ru  *  *  gö  |  zün   |   |  dî  | 
f4 d4 f4  | e2d2 c4 d4  | e4 f4 e2d2  | \
w:   |   |   | 
d8 d4  | d2_1/4e2 d2c2 c2B2  | B12  | |


